app/img/m-logo-4.svg

<svg width="28" height="37" viewBox="0 0 28 37" fill="none" xmlns="http://www.w3.org/2000/svg">
<path fill-rule="evenodd" clip-rule="evenodd" d="M8.90144 20.1715L5.08655 30.4024L16.5312 29.1235L17.1671 26.5658L20.3461 20.8109L20.9819 17.6138L8.90144 20.1715Z" fill="#39322B"/>
<path fill-rule="evenodd" clip-rule="evenodd" d="M19.7103 9.30122C19.7103 9.30122 18.5849 5.68845 17.0017 6.00816C13.2695 6.75629 6.99398 11.8589 6.99398 11.8589C6.99398 11.8589 6.35817 13.854 6.99398 18.2532C7.13386 19.1804 8.1766 20.1268 8.90143 20.8109C9.62626 21.4951 10.1731 21.2522 10.1731 25.287C10.1731 29.3217 6.54891 28.7207 3.17908 30.4024C0 31.9882 0 36.7967 0 36.7967H27.3401C27.3401 36.7967 26.9332 31.5917 24.7968 30.4024C21.9929 28.8358 16.5312 29.9228 16.5312 25.287C16.5312 22.8188 16.4804 22.3072 17.8029 20.8109C18.2416 20.3122 19.5768 19.5321 19.7103 18.8927C20.3079 15.7238 20.3079 12.4701 19.7103 9.30122Z" fill="white"/>
<path fill-rule="evenodd" clip-rule="evenodd" d="M21.6177 16.9743C21.4058 14.4166 21.1938 11.8589 20.9819 9.30118C20.9819 9.30118 19.5513 6.68592 18.3115 5.70759C17.3577 4.95306 16.5185 5.70759 16.5312 6.10404C16.5884 7.49799 18.5277 14.4742 17.5485 17.1214C16.6901 19.4489 14.1342 21.2777 14.1342 23.3942C14.1342 30.9203 13.9879 36.8222 13.9879 36.8222H27.3401C27.3401 36.8222 26.9332 31.6173 24.7968 30.4279C21.9929 28.8613 16.5312 29.9484 16.5312 25.3125C16.3936 24.3262 16.4761 23.3214 16.7728 22.3711C17.0099 21.795 17.3602 21.2731 17.8028 20.8365C18.3751 20.261 19.5831 19.6791 20.1553 19.1036C20.8547 18.3747 20.9183 17.6777 21.6177 16.9743Z" fill="#F1EEE9"/>
<path fill-rule="evenodd" clip-rule="evenodd" d="M15.8954 19.0909C15.0625 18.7647 14.1978 18.2532 13.3521 18.2532C12.5065 18.2532 11.6481 18.7647 10.8088 19.0909C10.8088 19.0909 12.3857 20.8109 13.3521 20.8109C14.3186 20.8109 15.8954 19.0909 15.8954 19.0909Z" fill="#39322B"/>
<path fill-rule="evenodd" clip-rule="evenodd" d="M17.6629 11.9228C18.1277 11.8314 18.601 11.7907 19.0744 11.8014C18.8338 11.5481 18.5289 11.366 18.1926 11.2747C17.8564 11.1834 17.5017 11.1864 17.167 11.2834C15.978 11.5584 14.9989 12.5623 15.2596 12.9587C15.4821 13.2465 16.83 12.0124 17.6629 11.9228Z" fill="#39322B"/>
<path fill-rule="evenodd" clip-rule="evenodd" d="M17.167 27.8446C19.328 25.2063 20.9098 22.1381 21.8085 18.8415C23.8812 11.2578 23.4425 0.988617 12.7163 0.988617C-3.27452 0.988617 5.08647 29.7629 5.08647 29.7629C5.3956 29.7421 5.69311 29.6362 5.94651 29.457C6.19991 29.2777 6.39947 29.0318 6.52341 28.7462C7.102 27.5825 7.22281 25.8113 8.14474 23.8034C9.85028 20.3019 11.8948 16.9778 14.2486 13.8795C16.1242 11.3602 17.3005 8.02234 17.8028 8.02234C18.8837 8.02234 20.0154 10.9253 20.0154 16.3349C20.0154 19.9988 17.9427 23.6947 16.919 25.8816C16.7458 26.1923 16.6763 26.5508 16.721 26.9043C16.7656 27.2577 16.922 27.5873 17.167 27.8446Z" fill="#ABAAA5"/>
<path fill-rule="evenodd" clip-rule="evenodd" d="M10.173 27.2052C11.1908 27.5918 12.2648 27.8078 13.3521 27.8446C14.439 27.8038 15.5123 27.5879 16.5312 27.2052L17.167 27.8446C14.6941 28.6953 12.0102 28.6953 9.53723 27.8446L10.173 27.2052Z" fill="#39322B"/>
<path fill-rule="evenodd" clip-rule="evenodd" d="M13.9879 36.7966C13.9879 36.7966 13.3521 33.5995 9.24475 33.5995C5.13737 33.5995 4.45068 36.7966 4.45068 36.7966H13.9879Z" fill="#006C71"/>
<path fill-rule="evenodd" clip-rule="evenodd" d="M22.8894 36.7966C22.8894 36.7966 22.2536 33.5995 18.1462 33.5995C14.0389 33.5995 13.3522 36.7966 13.3522 36.7966H22.8894Z" fill="#006C71"/>
</svg>

<svg width="28" height="37" fill="none" xmlns="http://www.w3.org/2000/svg"><path fill-rule="evenodd" clip-rule="evenodd" d="M8.901 20.172l-3.814 10.23 11.444-1.279.636-2.557 3.18-5.755.635-3.197-12.08 2.558z" fill="#39322B"/><path fill-rule="evenodd" clip-rule="evenodd" d="M19.71 9.301s-1.125-3.613-2.708-3.293c-3.732.748-10.008 5.85-10.008 5.85s-.636 1.996 0 6.395c.14.927 1.183 1.874 1.907 2.558.725.684 1.272.441 1.272 4.476S6.55 28.721 3.18 30.402C0 31.988 0 36.797 0 36.797h27.34s-.407-5.205-2.543-6.395c-2.804-1.566-8.266-.48-8.266-5.115 0-2.468-.05-2.98 1.272-4.476.439-.499 1.774-1.279 1.907-1.918a25.881 25.881 0 000-9.592z" fill="#fff"/><path fill-rule="evenodd" clip-rule="evenodd" d="M21.618 16.974l-.636-7.673s-1.43-2.615-2.67-3.593c-.954-.755-1.794 0-1.78.396.056 1.394 1.996 8.37 1.017 11.017-.859 2.328-3.415 4.157-3.415 6.273 0 7.526-.146 13.428-.146 13.428H27.34s-.407-5.205-2.543-6.394c-2.804-1.567-8.266-.48-8.266-5.116a6.744 6.744 0 01.242-2.94 4.63 4.63 0 011.03-1.535c.572-.576 1.78-1.158 2.352-1.733.7-.73.763-1.426 1.463-2.13z" fill="#F1EEE9"/><path fill-rule="evenodd" clip-rule="evenodd" d="M15.895 19.09c-.832-.325-1.697-.837-2.543-.837-.845 0-1.704.512-2.543.838 0 0 1.577 1.72 2.543 1.72.967 0 2.543-1.72 2.543-1.72zM17.663 11.923a6.549 6.549 0 011.411-.122 1.904 1.904 0 00-1.907-.518c-1.189.275-2.168 1.28-1.907 1.676.222.287 1.57-.947 2.403-1.036z" fill="#39322B"/><path fill-rule="evenodd" clip-rule="evenodd" d="M17.167 27.845a24.29 24.29 0 004.641-9.003C23.881 11.258 23.442.988 12.716.988c-15.99 0-7.63 28.774-7.63 28.774a1.686 1.686 0 001.437-1.017c.579-1.163.7-2.935 1.622-4.943a59.413 59.413 0 016.104-9.924c1.875-2.519 3.051-5.857 3.554-5.857 1.08 0 2.212 2.903 2.212 8.313 0 3.664-2.072 7.36-3.096 9.547a1.67 1.67 0 00.248 1.963z" fill="#ABAAA5"/><path fill-rule="evenodd" clip-rule="evenodd" d="M10.173 27.205a9.895 9.895 0 003.18.64 10.12 10.12 0 003.178-.64l.636.64c-2.473.85-5.157.85-7.63 0l.636-.64z" fill="#39322B"/><path fill-rule="evenodd" clip-rule="evenodd" d="M13.988 36.797S13.352 33.6 9.245 33.6c-4.108 0-4.794 3.197-4.794 3.197h9.537z" fill="#006C71"/><path fill-rule="evenodd" clip-rule="evenodd" d="M22.89 36.797s-.636-3.197-4.744-3.197c-4.107 0-4.794 3.197-4.794 3.197h9.537z" fill="#006C71"/></svg>
